!!!OTL: Die entfuehrte Graserin Wollte's Gott Graeserin grasene gehn,
!!!ARE: Europa, Mitteleuropa, Deutschland / France, Lothringen
!!!YOR: 2, S. 148
!!    1934 aufgezeichnet
!!!SCT: Q0045A
!!!YEM: Copyright 1995, estate of Helmut Schaffrath.
**kern
*ICvox
*Ivox
*M2/4
*k[b-]
*F:
=1
{8.f
16f
4f
=2
8.cc
16cc
4dd
=3
4cc
8b-
8a
=4
4g
8r}
{8cc
=5
8cc
8b-
8a
8g
=6
4f
4g
=7
4d
4d
=8
4c
8r}
{8c
=9
4f
4f
=10
4g
8cc
8b-
=11
4a
4a
=12
2a
=13
8a
8g
8g
8a
=14
2f}
==
!!!AGN: Ballade, Pastorelle, Entfuehrung, Tod
!! Kleinere Strophenvarianten abgedruckt. Verzierungen (Vorschlaege).
!!    (Text) - Anhaengsel an der dritten Zeile.
!!!ONB: ESAC (Essen Associative Code) Database: BALLADE
!!!AMT: simple duple
!!!AIN: vox
!!!EED: Helmut Schaffrath
!!!EEV: 1.0
*-
